usr/share/icons/biglinux-icons-material/scalable/apps/jockey.svg

<svg width="24" height="24" viewBox="0 0 24 24" fill="none" xmlns="http://www.w3.org/2000/svg">
<path fill-rule="evenodd" clip-rule="evenodd" d="M9.59606 1.11363C9.7159 1.1149 9.83045 1.09964 9.9397 1.06782C11.3755 0.973743 12.8111 0.97756 14.2467 1.07916C15.5484 1.18056 16.8085 1.46299 18.0269 1.92641C20.0525 2.76036 21.4386 4.20681 22.185 6.26577C22.6119 7.50541 22.8639 8.78014 22.9411 10.0899C23.0478 11.7346 23.0096 13.3757 22.8265 15.0132C22.6895 16.1641 22.3916 17.2709 21.933 18.3335C21.0824 20.176 19.704 21.4469 17.7978 22.1462C16.2531 22.6681 14.6647 22.9429 13.0325 22.9705C11.1966 23.0662 9.37915 22.9288 7.57999 22.5586C4.2684 21.8209 2.22559 19.8019 1.45159 16.5018C1.1231 15.0162 0.974206 13.5125 1.00484 11.9907C0.968173 10.3724 1.13999 8.77714 1.52032 7.20475C2.33171 4.11912 4.2905 2.20705 7.3967 1.46856C8.12049 1.2916 8.85361 1.17331 9.59606 1.11363Z" fill="url(#paint0_radial_2_150)"/>
<path d="M22.442 10.1193L22.4422 10.1223C22.5469 11.7371 22.5095 13.3482 22.3298 14.956C22.1987 16.0562 21.9143 17.1137 21.4765 18.1296C20.6823 19.8464 19.4081 21.0213 17.6316 21.6746C16.1378 22.1787 14.6026 22.4439 13.0241 22.4706L13.0153 22.4708L13.0065 22.4712C11.2145 22.5646 9.44093 22.4307 7.68478 22.0697C6.10574 21.7173 4.85812 21.0669 3.91567 20.1354C2.97307 19.2038 2.30869 17.9644 1.9391 16.3907C1.61967 14.9449 1.47492 13.4818 1.50473 12.0007L1.50495 11.99L1.50471 11.9793C1.46906 10.4061 1.63583 8.85576 2.00513 7.32714C2.39181 5.8595 3.04371 4.69622 3.94722 3.81427C4.85171 2.93135 6.03248 2.30683 7.51235 1.955L7.51235 1.95501L7.51545 1.95425C8.20669 1.78525 8.90663 1.67176 9.61551 1.61369C9.7532 1.61326 9.889 1.59694 10.0217 1.56356C11.4178 1.4743 12.8137 1.47907 14.2096 1.57778C15.461 1.67543 16.6716 1.94654 17.8428 2.39133C19.7336 3.17155 21.0156 4.50995 21.7136 6.43236C22.1249 7.62772 22.3676 8.8563 22.442 10.1193Z" stroke="#FAFAFA" stroke-opacity="0.125"/>
<path fill-rule="evenodd" clip-rule="evenodd" d="M10.1454 2.00095C10.1353 2.0016 10.1251 2.00227 10.1149 2.00293C10.0149 2.03205 9.91012 2.04601 9.80047 2.04485C9.60535 2.06053 9.41094 2.08064 9.21723 2.10517V4.57976H5.50252V3.2743C5.16922 3.47403 4.85981 3.69822 4.57432 3.94686V4.57976H3.94433C3.69814 4.86501 3.47553 5.17439 3.27652 5.5079H4.57432V9.22044H2.10373C2.0598 9.52887 2.02446 9.83825 1.99769 10.1486H4.57432V13.8611H2.00095C2.02782 14.1713 2.06303 14.4806 2.10657 14.7892H4.57432V18.5036H3.28553C3.48607 18.8371 3.71052 19.1465 3.95889 19.4317H4.57432V20.0469C4.85976 20.2953 5.16916 20.5194 5.50252 20.7193V19.4317H9.21723V21.8844C9.52605 21.9273 9.83545 21.9629 10.1454 21.991V19.4317H13.8564V22C14.1676 21.9752 14.477 21.9403 14.7846 21.8955V19.4317H18.4974V20.7268C18.8303 20.5291 19.1397 20.3059 19.4256 20.0572V19.4317H20.0491C20.2951 19.1472 20.5183 18.8378 20.7185 18.5036H19.4256V14.7892H21.9032C21.9043 14.7805 21.9053 14.7717 21.9064 14.763C21.94 14.4625 21.9682 14.1618 21.9912 13.8611H19.4256V10.1486H22.0043C21.9834 9.83702 21.9516 9.52764 21.909 9.22044H19.4256V5.5079H20.7315C20.5333 5.17472 20.3103 4.86535 20.0624 4.57976H19.4256V3.94514C19.1406 3.69935 18.8312 3.47696 18.4974 3.27798V4.57976H14.7865V2.09166C14.5445 2.05852 14.301 2.03241 14.0558 2.01331C13.99 2.00865 13.9241 2.00421 13.8583 2V4.58166H10.1454V2.00095ZM9.21535 5.5079H5.50441L5.50252 9.22044H9.21535V5.5079ZM13.8564 5.5079H10.1454V9.22044H13.8564V5.5079ZM18.4993 5.5079H14.7865V9.22044H18.4993V5.5079ZM9.21535 10.1486H5.50441L5.50252 13.8611H9.21535V10.1486ZM13.8564 10.1486H10.1454V13.8611H13.8564V10.1486ZM18.4993 10.1486H14.7865V13.8611H18.4993V10.1486ZM9.21535 14.7892H5.50441L5.50252 18.5036H9.21535V14.7892ZM13.8564 14.7892H10.1454V18.5036H13.8564V14.7892ZM18.4993 14.7892H14.7865V18.5036H18.4993V14.7892Z" fill="#FAFAFA" fill-opacity="0.125"/>
<path fill-rule="evenodd" clip-rule="evenodd" d="M13.5454 5.01215C12.5599 5.08606 11.5297 5.46678 10.589 5.93711C12.4703 5.93711 13.411 6.87782 14.3516 7.81847L16.2329 9.7042V10.6449L17.1736 11.5877L20 8.76359L19.0594 7.82065H18.1187L16.2352 5.93936C15.4737 5.17788 14.533 4.94048 13.5454 5.01215ZM14.3516 7.82291L10.589 11.5877H9.64838L4 17.2339L5.8813 19.1152L11.5297 13.4713V12.5306L15.2923 8.76359L14.3516 7.82291Z" fill="url(#paint1_radial_2_150)"/>
<defs>
<radialGradient id="paint0_radial_2_150" cx="0" cy="0" r="1" gradientUnits="userSpaceOnUse" gradientTransform="translate(12 1.00004) rotate(90) scale(22 22)">
<stop stop-color="#9BDCFF"/>
<stop offset="1" stop-color="#006AE8"/>
</radialGradient>
<radialGradient id="paint1_radial_2_150" cx="0" cy="0" r="1" gradientUnits="userSpaceOnUse" gradientTransform="translate(12 1) rotate(90) scale(22 24.9377)">
<stop stop-color="#777777"/>
<stop offset="1" stop-color="#222222"/>
</radialGradient>
</defs>
</svg>

<svg xmlns="http://www.w3.org/2000/svg" width="24" height="24" fill="none"><path fill="url(#a)" fill-rule="evenodd" d="M9.596 1.114c.12 0 .234-.014.344-.046a31.637 31.637 0 0 1 4.307.011c1.301.102 2.561.384 3.78.847 2.025.834 3.412 2.28 4.158 4.34.427 1.24.679 2.514.756 3.824a27.94 27.94 0 0 1-.114 4.923 11.88 11.88 0 0 1-.894 3.32c-.85 1.843-2.229 3.114-4.135 3.813a15.624 15.624 0 0 1-4.765.825 21.413 21.413 0 0 1-5.453-.412c-3.312-.738-5.354-2.757-6.128-6.057a19.045 19.045 0 0 1-.447-4.511 18.49 18.49 0 0 1 .515-4.786c.812-3.086 2.77-4.998 5.877-5.736a13.953 13.953 0 0 1 2.2-.355Z" clip-rule="evenodd"/><path stroke="#FAFAFA" stroke-opacity=".125" d="M22.442 10.12v.002a27.445 27.445 0 0 1-.112 4.834 11.378 11.378 0 0 1-.853 3.174c-.795 1.716-2.069 2.891-3.845 3.545-1.494.504-3.03.769-4.608.796h-.017a20.914 20.914 0 0 1-5.322-.401c-1.58-.353-2.827-1.003-3.77-1.935-.942-.931-1.606-2.17-1.976-3.744A18.546 18.546 0 0 1 1.505 12V11.98a17.99 17.99 0 0 1 .5-4.653c.387-1.468 1.039-2.63 1.942-3.513.905-.883 2.085-1.507 3.565-1.859h.003a13.453 13.453 0 0 1 2.1-.341c.138 0 .274-.017.407-.05a31.137 31.137 0 0 1 4.188.014c1.251.097 2.462.369 3.633.813 1.89.78 3.173 2.119 3.87 4.041.412 1.196.655 2.424.729 3.687Z"/><path fill="#FAFAFA" fill-opacity=".125" fill-rule="evenodd" d="m10.145 2.001-.03.002c-.1.029-.205.043-.315.042-.195.016-.39.036-.583.06V4.58H5.503V3.274c-.334.2-.643.424-.929.673v.633h-.63a6.567 6.567 0 0 0-.667.928h1.297V9.22h-2.47c-.044.309-.08.618-.106.929h2.576v3.712H2.001c.027.31.062.62.106.928h2.467v3.715H3.286c.2.333.425.642.673.928h.615v.615c.286.248.595.472.929.672v-1.287h3.714v2.452c.309.043.618.079.928.107v-2.56h3.711V22c.312-.025.621-.06.929-.105v-2.463h3.712v1.295c.333-.198.643-.421.929-.67v-.625h.623c.246-.285.47-.594.67-.928h-1.293v-3.715h2.477l.003-.026c.034-.3.062-.601.085-.902h-2.565V10.15h2.578c-.02-.312-.052-.621-.095-.929h-2.483V5.508h1.306a6.416 6.416 0 0 0-.67-.928h-.636v-.635a6.562 6.562 0 0 0-.929-.667V4.58h-3.71V2.092A12.59 12.59 0 0 0 13.857 2v2.582h-3.713V2Zm-.93 3.507h-3.71L5.502 9.22h3.712V5.508Zm4.641 0h-3.71V9.22h3.71V5.508Zm4.643 0h-3.712V9.22h3.712V5.508Zm-9.284 4.64h-3.71l-.002 3.713h3.712V10.15Zm4.641 0h-3.71v3.713h3.71V10.15Zm4.643 0h-3.712v3.713h3.712V10.15ZM9.215 14.79h-3.71l-.002 3.715h3.712v-3.715Zm4.641 0h-3.71v3.715h3.71v-3.715Zm4.643 0h-3.712v3.715h3.712v-3.715Z" clip-rule="evenodd"/><path fill="url(#b)" fill-rule="evenodd" d="M13.545 5.012c-.985.074-2.015.455-2.956.925 1.881 0 2.822.94 3.763 1.881l1.88 1.886v.94l.942.944L20 8.764l-.94-.943h-.941l-1.884-1.882c-.761-.761-1.702-.999-2.69-.927Zm.807 2.81-3.763 3.766h-.94L4 17.234l1.881 1.881 5.649-5.644v-.94l3.762-3.767-.94-.941Z" clip-rule="evenodd"/><defs><radialGradient id="a" cx="0" cy="0" r="1" gradientTransform="matrix(0 22 -22 0 12 1)" gradientUnits="userSpaceOnUse"><stop stop-color="#9BDCFF"/><stop offset="1" stop-color="#006AE8"/></radialGradient><radialGradient id="b" cx="0" cy="0" r="1" gradientTransform="matrix(0 22 -24.9377 0 12 1)" gradientUnits="userSpaceOnUse"><stop stop-color="#777"/><stop offset="1" stop-color="#222"/></radialGradient></defs></svg>
